img/cont-2.svg

<svg width="125" height="86" viewBox="0 0 125 86" fill="none" xmlns="http://www.w3.org/2000/svg">
<rect width="125" height="86" rx="5" fill="#CCE2F5"/>
<path d="M51.4701 58.008H45.2301L43.8861 61H42.6541L47.7741 49.8H48.9421L54.0621 61H52.8141L51.4701 58.008ZM51.0381 57.048L48.3501 51.032L45.6621 57.048H51.0381ZM60.0323 56.616C60.6296 56.7547 61.0883 56.9947 61.4083 57.336C61.739 57.6773 61.9043 58.0933 61.9043 58.584C61.9043 59.0747 61.7336 59.512 61.3923 59.896C61.0616 60.28 60.6083 60.5787 60.0323 60.792C59.4563 60.9947 58.8216 61.096 58.1283 61.096C57.5203 61.096 56.923 61.0107 56.3363 60.84C55.7496 60.6587 55.2376 60.3973 54.8003 60.056L55.1843 59.208C55.5683 59.496 56.0163 59.72 56.5283 59.88C57.0403 60.04 57.5576 60.12 58.0803 60.12C58.859 60.12 59.4936 59.976 59.9843 59.688C60.4856 59.3893 60.7363 58.9893 60.7363 58.488C60.7363 58.04 60.5336 57.6933 60.1283 57.448C59.723 57.192 59.1683 57.064 58.4643 57.064H57.0243V56.232H58.4003C59.0296 56.232 59.5363 56.1147 59.9203 55.88C60.3043 55.6347 60.4963 55.3093 60.4963 54.904C60.4963 54.456 60.2776 54.104 59.8403 53.848C59.4136 53.592 58.8536 53.464 58.1603 53.464C57.2536 53.464 56.3576 53.6933 55.4723 54.152L55.1523 53.272C56.155 52.7493 57.195 52.488 58.2723 52.488C58.9123 52.488 59.4883 52.584 60.0003 52.776C60.523 52.9573 60.9283 53.2187 61.2163 53.56C61.515 53.9013 61.6643 54.296 61.6643 54.744C61.6643 55.1707 61.515 55.5493 61.2163 55.88C60.9283 56.2107 60.5336 56.456 60.0323 56.616ZM64.4832 52.584H65.6192V59.272L71.2352 52.584H72.2432V61H71.1072V54.312L65.5072 61H64.4832V52.584ZM81.9628 52.584V61H80.9228V58.216H78.2828H77.9628L76.0108 61H74.7788L76.8748 58.056C76.2241 57.8747 75.7228 57.5653 75.3708 57.128C75.0188 56.6907 74.8428 56.136 74.8428 55.464C74.8428 54.5253 75.1628 53.8107 75.8028 53.32C76.4428 52.8293 77.3175 52.584 78.4268 52.584H81.9628ZM75.9948 55.496C75.9948 56.744 76.7895 57.368 78.3788 57.368H80.9228V53.592H78.4588C76.8161 53.592 75.9948 54.2267 75.9948 55.496Z" fill="black"/>
<path d="M67.2911 22.447C67.2911 22.8089 67.5845 23.1023 67.9464 23.1023C68.3083 23.1023 68.6017 22.8089 68.6017 22.447V14.583H67.2911V22.447Z" fill="white"/>
<path d="M67.9464 13.272C69.7561 13.272 71.2231 11.805 71.2231 9.99539C71.2224 8.18604 69.7558 6.71938 67.9464 6.71875C66.1368 6.71875 64.6698 8.18576 64.6698 9.99539C64.6698 11.805 66.1367 13.272 67.9464 13.272ZM67.9464 8.0294C68.3083 8.0294 68.6018 8.32282 68.6018 8.68473C68.6018 9.04664 68.3083 9.34006 67.9464 9.34006C67.5849 9.34112 67.2922 9.6339 67.2911 9.99539C67.2911 10.3573 66.9977 10.6507 66.6358 10.6507C66.2739 10.6507 65.9805 10.3573 65.9805 9.99539C65.9836 8.91092 66.8619 8.03257 67.9464 8.0294Z" fill="white"/>
<path d="M80.9895 14.9412C80.9463 14.7015 80.774 14.5054 80.5419 14.4317L77.6519 13.5142C77.0416 13.3138 76.4064 13.1991 75.7645 13.1734L71.4394 12.9965C71.4328 12.9965 71.4197 12.99 71.4132 12.99C70.999 13.4717 70.4876 13.8603 69.9124 14.1303V22.3678C69.9305 23.3287 69.2678 24.1688 68.3291 24.3751C67.752 24.4886 67.1543 24.3382 66.6997 23.9649C66.2452 23.5916 65.9813 23.0347 65.9804 22.4464V14.1302C65.2952 13.809 64.7023 13.3198 64.2569 12.7081L61.0523 12.577C60.6618 12.5559 60.2801 12.4532 59.9317 12.2756L59.6368 12.1118C59.3983 11.9833 59.1249 11.9351 58.8569 11.9741L55.7179 11.961C55.3596 11.9636 55.0687 12.2516 55.0626 12.6098L55.056 13.2259C55.0521 13.9568 54.4567 14.5464 53.7257 14.5431H53.1072C53.0764 14.5418 53.0456 14.5426 53.0149 14.5456C52.9486 14.5541 52.8879 14.5877 52.8456 14.6394C52.837 14.6505 52.8291 14.662 52.8219 14.6741C52.7669 14.7641 52.7046 14.8495 52.6444 14.9362C52.2342 15.5892 52.1312 16.3894 52.3626 17.125L52.9655 19.0517C53.1724 19.7272 52.8116 20.4459 52.1464 20.6835L51.8974 20.7229C51.6789 20.7574 51.4926 20.9001 51.4024 21.1021C51.3122 21.3042 51.3304 21.5381 51.4507 21.7238L53.3063 24.5893C53.4938 24.9994 53.4598 25.4767 53.2158 25.856C52.9718 26.2353 52.5515 26.4643 52.1006 26.4636H50.8947C50.5922 26.4636 50.2987 26.3609 50.0621 26.1723L48.2079 24.6942C48.0988 24.6085 47.9662 24.5583 47.8278 24.55L45.6824 24.4647C45.4324 24.4548 45.1985 24.5878 45.0793 24.8078C44.9602 25.0277 44.9764 25.2962 45.1212 25.5002L45.1212 25.5003C45.3088 25.7647 45.5736 25.9646 45.8792 26.0727L46.6876 26.3587C47.2201 26.5435 47.5758 27.0468 47.5722 27.6104V28.6804C47.5722 28.8734 47.6148 29.0641 47.6971 29.2387L50.1674 34.4848C50.2993 34.7602 50.6028 34.9093 50.9013 34.8453L53.2736 34.3013C53.5035 34.2503 53.6882 34.0797 53.7573 33.8546C53.8265 33.6296 53.7694 33.3847 53.6078 33.2135L52.1726 31.6931C52.0156 31.5229 51.9051 31.3153 51.8516 31.0902L51.605 30.0516C51.4858 29.5991 51.6051 29.117 51.9217 28.7724C52.3274 28.3502 52.9614 28.2429 53.4834 28.5082L60.0563 31.7324C60.3659 31.8792 60.6041 32.1434 60.7182 32.4664L61.1638 34.7732C61.211 35.0089 61.3833 35.2 61.613 35.271C61.8427 35.3421 62.0929 35.2818 62.2649 35.1139L65.0762 32.0535C65.383 31.7349 65.8246 31.5836 66.2624 31.6472C66.6992 31.716 67.0741 31.9954 67.265 32.3942L68.0449 34.0522L69.0868 35.1532C69.263 35.3425 69.3792 35.5796 69.4211 35.8347L69.2768 38.3195C69.2641 38.5391 69.3626 38.7505 69.539 38.882L69.8994 39.1507C70.1138 39.3096 70.4029 39.3233 70.6313 39.1854C70.8597 39.0475 70.9822 38.7853 70.9414 38.5216C70.9218 38.4101 70.9087 38.3315 70.9087 38.3118V37.0733C70.9087 36.3458 71.4984 35.7561 72.2259 35.7561H72.7502C72.956 35.7573 73.1592 35.8019 73.3465 35.8871L73.6152 35.8085C73.8188 35.749 73.9808 35.5943 74.0498 35.3937C74.1188 35.193 74.0862 34.9714 73.9624 34.7992L73.6938 34.4258C73.6082 34.3072 73.4863 34.2198 73.3465 34.1768L71.6361 33.6722C71.2831 33.3597 71.1255 32.8816 71.2232 32.4205C71.3122 31.964 71.6403 31.5908 72.0817 31.444L74.2508 30.6707L73.8183 26.9157C73.7247 26.1107 73.8803 25.2964 74.2639 24.5827L75.3584 22.5512C75.8072 21.7173 75.7747 20.7068 75.2731 19.9036L74.4278 18.5601C74.1733 18.157 74.1582 17.6473 74.3885 17.2298C74.6229 16.8051 75.0698 16.5415 75.5549 16.5417H76.8787C77.648 16.5417 78.3472 16.989 78.6698 17.6875L78.8185 18.0096L79.3362 18.4356C79.5604 18.6201 79.8793 18.635 80.1198 18.4724C80.3602 18.3097 80.465 18.0082 80.3772 17.7314L80.2471 17.3215C79.9618 16.7627 80.1098 16.0802 80.601 15.6897L80.7481 15.5746C80.9397 15.4247 81.0327 15.1808 80.9895 14.9412Z" fill="white"/>
</svg>

<svg width="125" height="86" fill="none" xmlns="http://www.w3.org/2000/svg"><rect width="125" height="86" rx="5" fill="#CCE2F5"/><path d="M51.47 58.008h-6.24L43.886 61h-1.232l5.12-11.2h1.168l5.12 11.2h-1.248l-1.344-2.992zm-.432-.96l-2.688-6.016-2.688 6.016h5.376zm8.994-.432c.598.139 1.056.379 1.376.72.331.341.496.757.496 1.248 0 .49-.17.928-.512 1.312-.33.384-.784.683-1.36.896a5.702 5.702 0 01-1.904.304 6.383 6.383 0 01-1.792-.256 4.747 4.747 0 01-1.536-.784l.384-.848c.384.288.832.512 1.344.672.512.16 1.03.24 1.552.24.779 0 1.414-.144 1.904-.432.502-.299.752-.699.752-1.2 0-.448-.202-.795-.608-1.04-.405-.256-.96-.384-1.664-.384h-1.44v-.832H58.4c.63 0 1.136-.117 1.52-.352.384-.245.576-.57.576-.976 0-.448-.218-.8-.656-1.056-.426-.256-.986-.384-1.68-.384-.906 0-1.802.23-2.688.688l-.32-.88a6.667 6.667 0 013.12-.784c.64 0 1.216.096 1.728.288.523.181.928.443 1.216.784.299.341.448.736.448 1.184 0 .427-.149.805-.448 1.136-.288.33-.682.576-1.184.736zm4.451-4.032h1.136v6.688l5.616-6.688h1.008V61h-1.136v-6.688L65.507 61h-1.024v-8.416zm17.48 0V61h-1.04v-2.784h-2.96L76.01 61h-1.232l2.096-2.944c-.65-.181-1.152-.49-1.504-.928-.352-.437-.528-.992-.528-1.664 0-.939.32-1.653.96-2.144.64-.49 1.514-.736 2.624-.736h3.536zm-5.968 2.912c0 1.248.794 1.872 2.384 1.872h2.544v-3.776h-2.464c-1.643 0-2.464.635-2.464 1.904z" fill="#000"/><path d="M67.291 22.447a.655.655 0 001.31 0v-7.864h-1.31v7.864zm.655-9.175a3.277 3.277 0 100-6.553 3.277 3.277 0 000 6.553zm0-5.243a.655.655 0 010 1.311.657.657 0 00-.655.655.655.655 0 01-1.31 0 1.972 1.972 0 011.965-1.966z" fill="#fff"/><path d="M80.99 14.941a.657.657 0 00-.448-.51l-2.89-.917a6.94 6.94 0 00-1.888-.34l-4.325-.178c-.006 0-.02-.006-.026-.006-.414.482-.925.87-1.5 1.14v8.238a2.016 2.016 0 01-1.584 2.007 1.969 1.969 0 01-2.349-1.929V14.13a4.489 4.489 0 01-1.723-1.422l-3.205-.131a2.8 2.8 0 01-1.12-.301l-.295-.164a1.261 1.261 0 00-.78-.138l-3.14-.013a.66.66 0 00-.654.649l-.007.616c-.004.73-.6 1.32-1.33 1.317h-.619a.662.662 0 00-.092.003.262.262 0 00-.193.128c-.055.09-.117.176-.178.262a2.63 2.63 0 00-.281 2.189l.602 1.927a1.322 1.322 0 01-.819 1.631l-.249.04a.654.654 0 00-.446 1l1.855 2.866a1.324 1.324 0 01-1.205 1.875h-1.206c-.303 0-.596-.103-.833-.292l-1.854-1.478a.681.681 0 00-.38-.144l-2.146-.085a.656.656 0 00-.56 1.035c.187.265.452.465.757.573l.809.286c.532.184.888.688.884 1.251v1.07c0 .193.043.384.125.559l2.47 5.246a.66.66 0 00.734.36l2.373-.544a.654.654 0 00.334-1.087l-1.435-1.52a1.35 1.35 0 01-.321-.604l-.247-1.038c-.12-.453 0-.935.317-1.28a1.33 1.33 0 011.561-.264l6.573 3.224c.31.147.548.411.662.734l.446 2.307a.656.656 0 001.1.34l2.812-3.06c.307-.318.749-.47 1.186-.406.437.069.812.348 1.003.747l.78 1.658 1.042 1.101c.176.19.292.427.334.682l-.144 2.484a.655.655 0 00.262.563l.36.269a.658.658 0 001.042-.63 2.56 2.56 0 01-.032-.21v-1.238c0-.727.59-1.317 1.317-1.317h.524c.206.001.41.046.597.131l.268-.078a.654.654 0 00.347-1.01l-.268-.373a.672.672 0 00-.347-.25l-1.71-.504a1.31 1.31 0 01-.414-1.252 1.29 1.29 0 01.859-.976l2.169-.773-.433-3.755a3.962 3.962 0 01.446-2.333l1.094-2.032a2.638 2.638 0 00-.085-2.647l-.845-1.344a1.308 1.308 0 01-.04-1.33 1.332 1.332 0 011.167-.688h1.324c.769 0 1.468.447 1.79 1.145l.15.323.517.426a.655.655 0 001.041-.705l-.13-.41a1.319 1.319 0 01.354-1.631l.147-.115a.656.656 0 00.242-.634z" fill="#fff"/></svg>
